assets/img/braze_icons/codepen.svg

<svg fill="none" height="24" viewBox="0 0 24 24" width="24" xmlns="http://www.w3.org/2000/svg"><path clip-rule="evenodd" d="m12.457 1.2453c-.3006-.07056-.6134-.07056-.914 0-.3481.08171-.6517.28077-.8934.43922l-8.5225 5.5397c-.20577.13276-.46463.29977-.66179.53571-.1706.20416-.29876.44031-.37696.69461-.09037.2939-.089323.60196-.08849.84683v5.39663c-.000833.2449-.00188.553.08849.8469.0782.2543.20636.4904.37696.6946.19716.2359.45602.4029.66179.5357l8.5225 5.5397c.2417.1584.5453.3575.8934.4392.3006.0705.6134.0705.914 0 .3481-.0817.6517-.2808.8934-.4392l8.5225-5.5397c.2058-.1328.4647-.2998.6618-.5357.1706-.2042.2988-.4403.377-.6946.0903-.2939.0893-.602.0885-.8469v-5.39662c.0008-.24488.0018-.55294-.0885-.84684-.0782-.2543-.2064-.49045-.377-.69461-.1971-.23594-.456-.40296-.6618-.53571l-8.5225-5.5397c-.2417-.15845-.5453-.35751-.8934-.43922zm-9.45699 9.0972.00422 4.6122 7.99577 5.2023v-4.6244zm9.99999 9.8145 7.9961-5.2074.0039-4.6071-8 5.19z" fill="#801ed7" fill-rule="evenodd"/></svg>

<svg width="24" height="24" viewBox="0 0 24 24" fill="none" xmlns="http://www.w3.org/2000/svg">
<path fill-rule="evenodd" clip-rule="evenodd" d="M12.457 1.2453C12.1564 1.17474 11.8436 1.17474 11.543 1.2453C11.1949 1.32701 10.8913 1.52607 10.6496 1.68452L2.1271 7.22422C1.92133 7.35698 1.66247 7.52399 1.46531 7.75993C1.29471 7.96409 1.16655 8.20024 1.08835 8.45454C0.99798 8.74844 0.999027 9.0565 0.99986 9.30137V14.698C0.999027 14.9429 0.99798 15.251 1.08835 15.5449C1.16655 15.7992 1.29471 16.0353 1.46531 16.2395C1.66247 16.4754 1.92133 16.6424 2.1271 16.7752L10.6496 22.3149C10.8913 22.4733 11.1949 22.6724 11.543 22.7541C11.8436 22.8246 12.1564 22.8246 12.457 22.7541C12.8051 22.6724 13.1087 22.4733 13.3504 22.3149L21.8729 16.7752C22.0787 16.6424 22.3376 16.4754 22.5347 16.2395C22.7053 16.0353 22.8335 15.7992 22.9117 15.5449C23.002 15.251 23.001 14.9429 23.0002 14.698V9.30138C23.001 9.0565 23.002 8.74844 22.9117 8.45454C22.8335 8.20024 22.7053 7.96409 22.5347 7.75993C22.3376 7.52399 22.0787 7.35697 21.8729 7.22422L13.3504 1.68452C13.1087 1.52607 12.8051 1.32701 12.457 1.2453ZM3.00001 10.3425L3.00423 14.9547L11 20.157V15.5326L3.00001 10.3425ZM13 20.157L20.9961 14.9496L21 10.3425L13 15.5325V20.157Z" fill="#801ED7"/>
</svg>
